X: 35182
T: Room 215
R: reel
M: 4/4
K: Dmajor
|:A|DAAF AAFA|ABBA BedB|FAAF B2AB|dBed f2 ef|
dAAF AAFA|ABBA Bcde|faab a2 fe|1 edBA Bdd]:|2 edBA ABB]||
|:c|dBBB fBef|dBBB fBef|dAAF B2AB|dBed f2ef|
dBBB fBec|dBBA Bcde|faab a2 fe|edBA Bdd:|

